overrides/.icons/d20/inv.svg

<?xml version="1.0" encoding="UTF-8" standalone="no"?>
<svg
   viewBox="0 0 24 24"
   version="1.1"
   id="svg1"
   sodipodi:docname="inv.svg"
   inkscape:version="1.3.2 (091e20e, 2023-11-25, custom)"
   xmlns:inkscape="http://www.inkscape.org/namespaces/inkscape"
   xmlns:sodipodi="http://sodipodi.sourceforge.net/DTD/sodipodi-0.dtd"
   xmlns="http://www.w3.org/2000/svg"
   xmlns:svg="http://www.w3.org/2000/svg">
  <defs
     id="defs1" />
  <sodipodi:namedview
     id="namedview1"
     pagecolor="#ffffff"
     bordercolor="#111111"
     borderopacity="1"
     inkscape:showpageshadow="0"
     inkscape:pageopacity="0"
     inkscape:pagecheckerboard="1"
     inkscape:deskcolor="#d1d1d1"
     inkscape:zoom="5.40625"
     inkscape:cx="-13.132948"
     inkscape:cy="16"
     inkscape:window-width="1366"
     inkscape:window-height="697"
     inkscape:window-x="-8"
     inkscape:window-y="-8"
     inkscape:window-maximized="1"
     inkscape:current-layer="svg1" />
  <path
     d="m 20.630433,2.435 v 5.7391304 h 1.913046 V 2.435 Z m 1.913047,19.130434 v -5.739128 h -1.913047 v 5.739128 z m -2.869567,-9.565215 c 0,1.061739 0.851305,1.913043 1.913045,1.913043 A 1.9130434,1.9130434 0 1 0 19.673912,12.000219 M 1.5,6.2610869 V 17.739348 c 0,1.061739 0.8513044,1.913044 1.9130434,1.913044 H 14.891304 a 1.9130434,1.9130434 0 0 0 1.913043,-1.913044 v -3.826086 l 1.913044,-1.913043 -1.913044,-1.913045 V 6.2610869 A 1.9130434,1.9130434 0 0 0 14.891304,4.3480434 H 3.4130434 C 2.3513044,4.3480434 1.5,5.1993478 1.5,6.2610869 m 8.608696,0.9565218 V 12.95674 H 8.1956523 V 7.2176087 Z m 0,7.6521753 v 1.913042 H 8.1956523 v -1.913042 z"
     id="path1"
     style="stroke-width:0.999996" />
</svg>

<?xml version="1.0" encoding="UTF-8"?>
<svg id="svg1" version="1.1" viewBox="0 0 24 24" xmlns="http://www.w3.org/2000/svg">
 <path id="path1" d="m20.63 2.435v5.7391h1.913v-5.7391zm1.913 19.13v-5.7391h-1.913v5.7391zm-2.8696-9.5652c0 1.0617 0.8513 1.913 1.913 1.913a1.913 1.913 0 1 0-1.913-1.913m-18.174-5.7391v11.478c0 1.0617 0.8513 1.913 1.913 1.913h11.478a1.913 1.913 0 0 0 1.913-1.913v-3.8261l1.913-1.913-1.913-1.913v-3.8261a1.913 1.913 0 0 0-1.913-1.913h-11.478c-1.0617 0-1.913 0.8513-1.913 1.913m8.6087 0.95652v5.7391h-1.913v-5.7391zm0 7.6522v1.913h-1.913v-1.913z"/>
</svg>
